SVG_Azure_Grouped/Data/Open Dataset.svg

<?xml version="1.0" encoding="UTF-8" standalone="no"?>
<!-- Generated by Microsoft Visio, SVG Export Open Dataset.svg Page-1 -->

<svg
   xmlns:dc="http://purl.org/dc/elements/1.1/"
   xmlns:cc="http://creativecommons.org/ns#"
   xmlns:rdf="http://www.w3.org/1999/02/22-rdf-syntax-ns#"
   xmlns:svg="http://www.w3.org/2000/svg"
   xmlns="http://www.w3.org/2000/svg"
   xmlns:sodipodi="http://sodipodi.sourceforge.net/DTD/sodipodi-0.dtd"
   xmlns:inkscape="http://www.inkscape.org/namespaces/inkscape"
   width="0.77991456in"
   height="0.70863748in"
   viewBox="0 0 56.153846 51.021817"
   xml:space="preserve"
   class="st9"
   version="1.1"
   id="svg76"
   sodipodi:docname="Open Dataset.svg"
   style="font-size:12px;overflow:visible;color-interpolation-filters:sRGB;fill:none;fill-rule:evenodd;stroke-linecap:square;stroke-miterlimit:3"
   inkscape:version="0.92.5 (2060ec1f9f, 2020-04-08)"><metadata
   id="metadata82"><rdf:RDF><cc:Work
       rdf:about=""><dc:format>image/svg+xml</dc:format><dc:type
         rdf:resource="http://purl.org/dc/dcmitype/StillImage" /></cc:Work></rdf:RDF></metadata><defs
   id="defs80" /><sodipodi:namedview
   pagecolor="#ffffff"
   bordercolor="#666666"
   borderopacity="1"
   objecttolerance="10"
   gridtolerance="10"
   guidetolerance="10"
   inkscape:pageopacity="0"
   inkscape:pageshadow="2"
   inkscape:window-width="640"
   inkscape:window-height="480"
   id="namedview78"
   showgrid="false"
   inkscape:zoom="1.963572"
   inkscape:cx="37.795281"
   inkscape:cy="14.737934"
   inkscape:window-x="0"
   inkscape:window-y="0"
   inkscape:window-maximized="0"
   inkscape:current-layer="svg76" />
	<style
   type="text/css"
   id="style2">
	<![CDATA[
		.st1 {fill:#0072c6;stroke:none;stroke-linecap:butt;stroke-width:0.75}
		.st2 {fill:#ffffff;fill-opacity:0.2;stroke:none;stroke-linecap:butt;stroke-width:0.75}
		.st3 {fill:#ffffff;stroke:none;stroke-linecap:butt;stroke-width:0.75}
		.st4 {fill:#b8d432;stroke:none;stroke-linecap:butt;stroke-width:0.75}
		.st5 {fill:#7fba00;stroke:none;stroke-linecap:butt;stroke-width:0.75}
		.st6 {fill:#3999c6;stroke:none;stroke-linecap:butt;stroke-width:0.75}
		.st7 {fill:#59b4d9;stroke:none;stroke-linecap:butt;stroke-width:0.75}
		.st8 {fill:#ffffff;fill-opacity:0.25;stroke:none;stroke-linecap:butt;stroke-width:0.75}
		.st9 {fill:none;fill-rule:evenodd;font-size:12px;overflow:visible;stroke-linecap:square;stroke-miterlimit:3}
	]]>
	</style>

	<g
   id="g74"
   transform="translate(-5.66929,-5.1024733)">
		<title
   id="title4">Page-1</title>
		<g
   id="group19312-1"
   transform="translate(5.66929,-34.0157)">
			<title
   id="title6">Open Dataset.19312</title>
			<g
   id="shape19313-2">
				<title
   id="title8">Sheet.19313</title>
				<path
   d="m 0,58.05 v 27.33 c 0,2.63 6.03,4.76 13.48,4.76 h 0.02 0.16 v 0 C 21.02,90.1 26.95,87.99 26.95,85.38 V 58.05 Z"
   class="st1"
   id="path10"
   inkscape:connector-curvature="0"
   style="fill:#0072c6;stroke:none;stroke-width:0.75;stroke-linecap:butt" />
			</g>
			<g
   id="shape19314-4"
   transform="translate(0,-0.00108792)">
				<title
   id="title13">Sheet.19314</title>
				<path
   d="m 0,58.05 v 27.26 c 0,2.67 6.31,4.83 13.86,4.83 V 58.05 Z"
   class="st2"
   id="path15"
   inkscape:connector-curvature="0"
   style="fill:#ffffff;fill-opacity:0.2;stroke:none;stroke-width:0.75;stroke-linecap:butt" />
			</g>
			<g
   id="shape19315-6"
   transform="translate(0.11231,-27.0523)">
				<title
   id="title18">Sheet.19315</title>
				<path
   d="m 26.85,85.06 c 0,2.62 -6.01,5.08 -13.43,5.08 C 6.01,90.14 0,87.67 0,85.06 c 0,-2.62 6.01,-4.75 13.42,-4.75 7.42,0 13.43,2.13 13.43,4.75 z"
   class="st3"
   id="path20"
   inkscape:connector-curvature="0"
   style="fill:#ffffff;stroke:none;stroke-width:0.75;stroke-linecap:butt" />
			</g>
			<g
   id="shape19316-8"
   transform="translate(2.8347,-29.2739)">
				<title
   id="title23">Sheet.19316</title>
				<path
   d="m 21.4,87.22 c 0,1.62 -4.79,2.92 -10.7,2.92 C 4.79,90.14 0,88.83 0,87.22 0,85.61 4.79,84.3 10.7,84.3 c 5.91,0 10.7,1.31 10.7,2.92 z"
   class="st4"
   id="path25"
   inkscape:connector-curvature="0"
   style="fill:#b8d432;stroke:none;stroke-width:0.75;stroke-linecap:butt" />
			</g>
			<g
   id="shape19317-10"
   transform="translate(4.96971,-29.2739)">
				<title
   id="title28">Sheet.19317</title>
				<path
   d="m 0,88.97 c 1.95,0.71 5.06,1.17 8.57,1.17 3.51,0 6.61,-0.46 8.56,-1.17 -1.95,-0.72 -5.05,-1.18 -8.56,-1.18 -3.51,0 -6.62,0.46 -8.57,1.18 z"
   class="st5"
   id="path30"
   inkscape:connector-curvature="0"
   style="fill:#7fba00;stroke:none;stroke-width:0.75;stroke-linecap:butt" />
			</g>
			<g
   id="shape19318-12"
   transform="translate(9.0971,-32.7465)">
				<title
   id="title33">Sheet.19318</title>
				<ellipse
   cx="4.3800902"
   cy="85.898804"
   rx="4.3800902"
   ry="4.2428999"
   class="st6"
   id="ellipse35"
   style="fill:#3999c6;stroke:none;stroke-width:0.75;stroke-linecap:butt" />
			</g>
			<g
   id="shape19319-14"
   transform="translate(18.0819,-42.5378)">
				<title
   id="title38">Sheet.19319</title>
				<ellipse
   cx="4.3800902"
   cy="85.898804"
   rx="4.3800902"
   ry="4.2428999"
   class="st6"
   id="ellipse40"
   style="fill:#3999c6;stroke:none;stroke-width:0.75;stroke-linecap:butt" />
			</g>
			<g
   id="shape19320-16"
   transform="translate(30.436,-42.5378)">
				<title
   id="title43">Sheet.19320</title>
				<ellipse
   cx="4.3800902"
   cy="85.898804"
   rx="4.3800902"
   ry="4.2428999"
   class="st6"
   id="ellipse45"
   style="fill:#3999c6;stroke:none;stroke-width:0.75;stroke-linecap:butt" />
			</g>
			<g
   id="shape19321-18"
   transform="translate(38.2977,-32.7465)">
				<title
   id="title48">Sheet.19321</title>
				<ellipse
   cx="4.3800902"
   cy="85.898804"
   rx="4.3800902"
   ry="4.2428999"
   class="st6"
   id="ellipse50"
   style="fill:#3999c6;stroke:none;stroke-width:0.75;stroke-linecap:butt" />
			</g>
			<g
   id="shape19322-20"
   transform="translate(28.6626,-1.08792)">
				<title
   id="title53">Sheet.19322</title>
				<path
   d="M 27.09,87.1 18.53,71.85 v -6.18 h 0.15 c 1.03,0 1.86,-0.85 1.86,-1.91 0,-1.05 -0.83,-1.9 -1.86,-1.9 H 9.35 c -1.03,0 -1.86,0.85 -1.86,1.9 0,1.06 0.83,1.91 1.86,1.91 H 9.5 v 6.18 L 0.94,87.1 C 0,88.77 0.77,90.14 2.65,90.14 h 22.74 c 1.87,0 2.64,-1.37 1.7,-3.04 z"
   class="st7"
   id="path55"
   inkscape:connector-curvature="0"
   style="fill:#59b4d9;stroke:none;stroke-width:0.75;stroke-linecap:butt" />
			</g>
			<g
   id="shape19323-22"
   transform="translate(33.1202,-4.40174)">
				<title
   id="title58">Sheet.19323</title>
				<path
   d="M 3.53,83.85 0,90.14 h 19.12 l -3.54,-6.29 z"
   class="st4"
   id="path60"
   inkscape:connector-curvature="0"
   style="fill:#b8d432;stroke:none;stroke-width:0.75;stroke-linecap:butt" />
			</g>
			<g
   id="shape19324-24"
   transform="translate(44.4275,-5.89872)">
				<title
   id="title63">Sheet.19324</title>
				<ellipse
   cx="0.84794003"
   cy="89.270302"
   rx="0.84794003"
   ry="0.871427"
   class="st5"
   id="ellipse65"
   style="fill:#7fba00;stroke:none;stroke-width:0.75;stroke-linecap:butt" />
			</g>
			<g
   id="shape19325-26"
   transform="translate(28.6626,-1.08792)">
				<title
   id="title68">Sheet.19325</title>
				<path
   d="M 0.94,87.1 9.5,71.85 V 65.67 H 9.35 c -1.03,0 -1.86,-0.85 -1.86,-1.91 0,-1.05 0.83,-1.9 1.86,-1.9 h 4.02 V 71.8 L 8.86,90.14 H 2.65 C 0.77,90.14 0,88.77 0.94,87.1 Z"
   class="st8"
   id="path70"
   inkscape:connector-curvature="0"
   style="fill:#ffffff;fill-opacity:0.25;stroke:none;stroke-width:0.75;stroke-linecap:butt" />
			</g>
		</g>
	</g>
</svg>

<?xml version="1.0" encoding="UTF-8" standalone="no"?>
<!DOCTYPE svg PUBLIC "-//W3C//DTD SVG 1.1//EN" "http://www.w3.org/Graphics/SVG/1.1/DTD/svg11.dtd">
<!-- Generated by Microsoft Visio, SVG Export Open Dataset.svg Page-1 -->
<svg xmlns="http://www.w3.org/2000/svg" xmlns:xlink="http://www.w3.org/1999/xlink" xmlns:ev="http://www.w3.org/2001/xml-events"
		width="0.944882in" height="1.25197in" viewBox="0 0 68.0315 90.1417" xml:space="preserve" color-interpolation-filters="sRGB"
		class="st9">
	<style type="text/css">
	<![CDATA[
		.st1 {fill:#0072c6;stroke:none;stroke-linecap:butt;stroke-width:0.75}
		.st2 {fill:#ffffff;fill-opacity:0.2;stroke:none;stroke-linecap:butt;stroke-width:0.75}
		.st3 {fill:#ffffff;stroke:none;stroke-linecap:butt;stroke-width:0.75}
		.st4 {fill:#b8d432;stroke:none;stroke-linecap:butt;stroke-width:0.75}
		.st5 {fill:#7fba00;stroke:none;stroke-linecap:butt;stroke-width:0.75}
		.st6 {fill:#3999c6;stroke:none;stroke-linecap:butt;stroke-width:0.75}
		.st7 {fill:#59b4d9;stroke:none;stroke-linecap:butt;stroke-width:0.75}
		.st8 {fill:#ffffff;fill-opacity:0.25;stroke:none;stroke-linecap:butt;stroke-width:0.75}
		.st9 {fill:none;fill-rule:evenodd;font-size:12px;overflow:visible;stroke-linecap:square;stroke-miterlimit:3}
	]]>
	</style>

	<g>
		<title>Page-1</title>
		<g id="group18876-1" transform="translate(5.66929,-34.0157)">
			<title>Open Dataset.18876</title>
			<g id="shape18877-2">
				<title>Sheet.18877</title>
				<path d="M0 58.05 L0 85.38 C0 88.01 6.03 90.14 13.48 90.14 L13.5 90.14 L13.66 90.14 L13.66 90.14 C21.02 90.1 26.95
							 87.99 26.95 85.38 L26.95 58.05 L0 58.05 Z" class="st1"/>
			</g>
			<g id="shape18878-4" transform="translate(0,-0.00108792)">
				<title>Sheet.18878</title>
				<path d="M0 58.05 L0 85.31 C0 87.98 6.31 90.14 13.86 90.14 L13.86 58.05 L0 58.05 Z" class="st2"/>
			</g>
			<g id="shape18879-6" transform="translate(0.11231,-27.0523)">
				<title>Sheet.18879</title>
				<path d="M26.85 85.06 C26.85 87.68 20.84 90.14 13.42 90.14 C6.01 90.14 0 87.67 0 85.06 C0 82.44 6.01 80.31 13.42
							 80.31 C20.84 80.31 26.85 82.44 26.85 85.06 Z" class="st3"/>
			</g>
			<g id="shape18880-8" transform="translate(2.8347,-29.2739)">
				<title>Sheet.18880</title>
				<path d="M21.4 87.22 C21.4 88.84 16.61 90.14 10.7 90.14 C4.79 90.14 0 88.83 0 87.22 C0 85.61 4.79 84.3 10.7 84.3
							 C16.61 84.3 21.4 85.61 21.4 87.22 Z" class="st4"/>
			</g>
			<g id="shape18881-10" transform="translate(4.96971,-29.2739)">
				<title>Sheet.18881</title>
				<path d="M0 88.97 C1.95 89.68 5.06 90.14 8.57 90.14 C12.08 90.14 15.18 89.68 17.13 88.97 C15.18 88.25 12.08 87.79
							 8.57 87.79 C5.06 87.79 1.95 88.25 0 88.97 Z" class="st5"/>
			</g>
			<g id="shape18882-12" transform="translate(9.0971,-32.7465)">
				<title>Sheet.18882</title>
				<ellipse cx="4.38009" cy="85.8988" rx="4.38009" ry="4.2429" class="st6"/>
			</g>
			<g id="shape18883-14" transform="translate(18.0819,-42.5378)">
				<title>Sheet.18883</title>
				<ellipse cx="4.38009" cy="85.8988" rx="4.38009" ry="4.2429" class="st6"/>
			</g>
			<g id="shape18884-16" transform="translate(30.436,-42.5378)">
				<title>Sheet.18884</title>
				<ellipse cx="4.38009" cy="85.8988" rx="4.38009" ry="4.2429" class="st6"/>
			</g>
			<g id="shape18885-18" transform="translate(38.2977,-32.7465)">
				<title>Sheet.18885</title>
				<ellipse cx="4.38009" cy="85.8988" rx="4.38009" ry="4.2429" class="st6"/>
			</g>
			<g id="shape18886-20" transform="translate(28.6626,-1.08792)">
				<title>Sheet.18886</title>
				<path d="M27.09 87.1 L18.53 71.85 L18.53 65.67 L18.68 65.67 C19.71 65.67 20.54 64.82 20.54 63.76 C20.54 62.71 19.71
							 61.86 18.68 61.86 L9.35 61.86 C8.32 61.86 7.49 62.71 7.49 63.76 C7.49 64.82 8.32 65.67 9.35 65.67 L9.5
							 65.67 L9.5 71.85 L0.94 87.1 C0 88.77 0.77 90.14 2.65 90.14 L25.39 90.14 C27.26 90.14 28.03 88.77 27.09
							 87.1 Z" class="st7"/>
			</g>
			<g id="shape18887-22" transform="translate(33.1202,-4.40174)">
				<title>Sheet.18887</title>
				<path d="M3.53 83.85 L0 90.14 L19.12 90.14 L15.58 83.85 L3.53 83.85 Z" class="st4"/>
			</g>
			<g id="shape18888-24" transform="translate(44.4275,-5.89872)">
				<title>Sheet.18888</title>
				<ellipse cx="0.84794" cy="89.2703" rx="0.84794" ry="0.871427" class="st5"/>
			</g>
			<g id="shape18889-26" transform="translate(28.6626,-1.08792)">
				<title>Sheet.18889</title>
				<path d="M0.94 87.1 L9.5 71.85 L9.5 65.67 L9.35 65.67 C8.32 65.67 7.49 64.82 7.49 63.76 C7.49 62.71 8.32 61.86 9.35
							 61.86 L13.37 61.86 L13.37 71.8 L8.86 90.14 L2.65 90.14 C0.77 90.14 0 88.77 0.94 87.1 Z" class="st8"/>
			</g>
		</g>
	</g>
</svg>
